X:1
T:Title
%%score [ ( 1 2 ) ( 3 4 ) ] { ( 5 6 ) | ( 7 8 ) }
L:1/8
Q:1/4=120
M:4/4
K:G
V:1 treble nm="Midi_74"
V:2 treble 
V:3 bass nm="Midi_74"
V:4 bass 
V:5 treble nm="Org."
V:6 treble 
V:7 bass 
V:8 bass 
V:1
 B8 | d4 (c2 A2) | (G4 F4) || A8 | B4 (G2 E2) | D4 E4 | D8 || d8 | =f4 (e2 c2) | (B4 A4) || d8 | %11
 e4 (c2 A2) |"^William Henry Havergal\n(1793-1870)" G4 A4 | G8 |] %14
V:2
 G8 | G4 (A2 E2) | D8 || D8 | D4 D4 | D4 ^C4 | D8 || G8 | G4 G4 | (G4 F4) || G8 | G4 (G2 E2) | %12
 D4 F4 | G8 |] %14
V:3
 D8 | D4 (E2 C2) | (B,4 A,4) || A,8 | G,4 (B,2 G,2) | F,4 G,4 | F,8 || D8 | B,4 (C2 E2) | D8 || %10
 D8 | C4 (E2 C2) | B,4 C4 | B,8 |] %14
V:4
 G,8 | B,,4 C,4 | D,8 || F,8 | G,4 G,,4 | A,,4 A,,4 | D,8 || B,,8 | G,,4 C,4 | D,8 || B,,8 | %11
 C,4 C,4 | D,4 D,4 | G,,8 |] %14
V:5
 B8 | d4 c2 A2 | G4 F4 || A8 | B4 G2 E2 | D4 E4 | D8 || d8 | =f4 e2 c2 | [GB]4 [FA]4 || d8 | %11
 e4 c2 A2 | G4 A4 | G8 |] %14
V:6
 [DG]8 | [DG]4 E2 C2 | B,4 A,4 || D8 | D4 B,2 x2 | x4 ^C4 | D8 || G8 | [GB]4 [Gc]2 [EG]2 | D8 || %10
 [DG]8 | G4 E2 C2 | B,4 [CF]4 | [B,G]8 |] %14
V:7
 x8 | x8 | x8 || x8 | x6 G,2 | F,4 G,4 | x8 || x8 | x8 | x8 || x8 | x8 | x8 | x8 |] %14
V:8
 G,8 | B,,4 C,4 | D,8 || F,8 | G,4 G,,4 | A,,4 A,,4 | [D,F,]8 || B,,8 | G,,4 C,4 | D,8 || B,,8 | %11
 C,4 C,4 | D,4 D,4 | G,,8 |] %14

